dist/icons/svgs/face-grin-solid.svg

<svg xmlns="http://www.w3.org/2000/svg" width="24" height="24" fill="currentcolor" class="icon-face-grin-solid" viewBox="0 0 24 24">
  <path d="M12 22C8.40625 22 5.125 20.125 3.32812 17C1.53125 13.9141 1.53125 10.125 3.32812 7C5.125 3.91406 8.40625 2 12 2C15.5547 2 18.8359 3.91406 20.6328 7C22.4297 10.125 22.4297 13.9141 20.6328 17C18.8359 20.125 15.5547 22 12 22ZM17.1562 14.2266C15.5938 14.6953 13.8359 14.9688 12 14.9688C10.1641 14.9688 8.40625 14.6953 6.84375 14.2266C6.375 14.0703 5.90625 14.5 6.10156 14.9688C7.07812 17.2734 9.34375 18.875 12 18.875C14.6562 18.875 16.9219 17.2734 17.8984 14.9688C18.0938 14.5 17.625 14.0703 17.1562 14.2266ZM7.625 10.125C7.625 10.8281 8.17188 11.375 8.875 11.375C9.57812 11.375 10.125 10.8281 10.125 10.125C10.125 9.46094 9.57812 8.875 8.875 8.875C8.17188 8.875 7.625 9.46094 7.625 10.125ZM15.125 8.875C14.4219 8.875 13.875 9.46094 13.875 10.125C13.875 10.8281 14.4219 11.375 15.125 11.375C15.8281 11.375 16.375 10.8281 16.375 10.125C16.375 9.46094 15.8281 8.875 15.125 8.875Z"/>
</svg>

<svg xmlns="http://www.w3.org/2000/svg" width="24" height="24" fill="currentColor" class="icon-face-grin-solid" viewBox="0 0 24 24">
  <path d="M12 22c-3.594 0-6.875-1.875-8.672-5-1.797-3.086-1.797-6.875 0-10C5.125 3.914 8.406 2 12 2c3.555 0 6.836 1.914 8.633 5 1.797 3.125 1.797 6.914 0 10A9.93 9.93 0 0 1 12 22m5.156-7.773c-1.562.468-3.32.742-5.156.742s-3.594-.274-5.156-.742c-.469-.157-.938.273-.742.742A6.39 6.39 0 0 0 12 18.875a6.39 6.39 0 0 0 5.898-3.906c.196-.469-.273-.899-.742-.742m-9.531-4.102c0 .703.547 1.25 1.25 1.25s1.25-.547 1.25-1.25c0-.664-.547-1.25-1.25-1.25s-1.25.586-1.25 1.25m7.5-1.25c-.703 0-1.25.586-1.25 1.25 0 .703.547 1.25 1.25 1.25s1.25-.547 1.25-1.25c0-.664-.547-1.25-1.25-1.25"/>
</svg>
